packages/kaspersky-hexa-ui-icons/src/iconsSVGs/16/FacebookColor.svg

<svg width="16" height="16" viewBox="0 0 16 16" fill="none" xmlns="http://www.w3.org/2000/svg">
<path d="M15 8C15 4.13404 11.866 1 8 1C4.13404 1 1 4.13404 1 8C1 11.2827 3.26016 14.0374 6.30908 14.7939V10.1392H4.86568V8H6.30908V7.07824C6.30908 4.69572 7.38736 3.5914 9.72648 3.5914C10.17 3.5914 10.9352 3.67848 11.2483 3.76528V5.70428C11.0831 5.68692 10.7961 5.67824 10.4396 5.67824C9.29192 5.67824 8.8484 6.11308 8.8484 7.24344V8H11.1349L10.742 10.1392H8.8484V14.9488C12.3145 14.5302 15 11.579 15 8Z" fill="#0866FF"/>
<path d="M10.742 10.1392L11.1349 8H8.8484V7.24344C8.8484 6.11308 9.29192 5.67824 10.4396 5.67824C10.7961 5.67824 11.0831 5.68692 11.2483 5.70428V3.76528C10.9352 3.67848 10.17 3.5914 9.72648 3.5914C7.38736 3.5914 6.30908 4.69572 6.30908 7.07824V8H4.86568V10.1392H6.30908V14.7939C6.8506 14.9283 7.41676 15 7.99972 15C8.28672 15 8.5698 14.9824 8.84784 14.9488V10.1392H10.742Z" fill="white"/>
</svg>

<svg xmlns="http://www.w3.org/2000/svg" width="16" height="16" fill="none" viewBox="0 0 16 16"><path fill="#0866ff" d="M15 8c0-3.866-3.134-7-7-7S1 4.134 1 8c0 3.2827 2.2602 6.0374 5.309 6.7939v-4.6547H4.8658V8H6.309v-.9218c0-2.3825 1.0783-3.4868 3.4174-3.4868.4435 0 1.2087.087 1.5218.1739v1.939c-.1652-.0174-.4522-.026-.8087-.026-1.1477 0-1.5912.4348-1.5912 1.5651V8h2.2865l-.3929 2.1392H8.8484v4.8096C12.3145 14.5302 15 11.579 15 8"/><path fill="#fff" d="M10.742 10.1392 11.1349 8H8.8484v-.7566c0-1.1303.4435-1.5652 1.5912-1.5652.3565 0 .6435.0087.8087.026v-1.939c-.3131-.0867-1.0783-.1738-1.5218-.1738-2.3391 0-3.4174 1.1043-3.4174 3.4868V8H4.8657v2.1392H6.309v4.6547A7 7 0 0 0 7.9997 15c.287 0 .5701-.0176.8481-.0512v-4.8096z"/></svg>
